public/calendar/cloudy.svg

<?xml version="1.0" encoding="UTF-8" standalone="no"?>
<svg version="1.1" viewBox="0 0 64 64" width="64" height="64" fill="#dddddd" id="cloudysvg" xmlns="http://www.w3.org/2000/svg" xmlns:svg="http://www.w3.org/2000/svg">
  <g id="cloudy">
    <path id="path1" d="m 27.01,1.05 c 6.28,-0.38 10.78,1.92 14.65,6.75 3.76,-0.17 7.19,-0.16 10.4,2.06 3.11,1.76 4.57,4.56 6.09,7.66 -2.96,-0.85 -5.47,-1.29 -8.52,-0.77 -3.51,-4.17 -6.9,-5.04 -12.24,-4.81 -3.23,-5.88 -8.67,-9.03 -15.33,-9.35 1.65,-0.5 3.31,-1 4.95,-1.54 z" />
    <path id="path2" d="m 26.58,7.31 c 3.36,1.69 5.27,4.65 6.53,8.08 5.65,-0.88 9.48,2.19 12.52,6.58 3.64,-0.1 7.01,-0.63 10.38,1.13 1.85,0.99 2.82,2.56 4.1,4.14 C 42.08,33.32 23.95,39.12 5.9,45.15 3.55,41.22 3.46,38.53 3.95,34.03 2.33,30.79 0.04,27.13 1.06,23.37 c 1.11,-4.31 5.59,-6.19 9.2,-7.98 0.71,-3.17 1.5,-6.01 4.19,-8.09 3.69,-1.77 8.48,-2.07 12.13,0.01 z" />
  </g>
</svg>

<?xml version="1.0" encoding="UTF-8" standalone="no"?>
<!DOCTYPE svg PUBLIC "-//W3C//DTD SVG 1.1//EN" "http://www.w3.org/Graphics/SVG/1.1/DTD/svg11.dtd">
<svg xmlns="http://www.w3.org/2000/svg" version="1.1" viewBox="0 0 61 46" width="61.0pt" height="46.0pt" fill="#DDDDDD">
  <path d="M 27.01 1.05 C 33.29 0.67 37.79 2.97 41.66 7.80 C 45.42 7.63 48.85 7.64 52.06 9.86 C 55.17 11.62 56.63 14.42 58.15 17.52 C 55.19 16.67 52.68 16.23 49.63 16.75 C 46.12 12.58 42.73 11.71 37.39 11.94 C 34.16 6.06 28.72 2.91 22.06 2.59 C 23.71 2.09 25.37 1.59 27.01 1.05 Z" />
  <path d="M 26.58 7.31 C 29.94 9.00 31.85 11.96 33.11 15.39 C 38.76 14.51 42.59 17.58 45.63 21.97 C 49.27 21.87 52.64 21.34 56.01 23.10 C 57.86 24.09 58.83 25.66 60.11 27.24 C 42.08 33.32 23.95 39.12 5.90 45.15 C 3.55 41.22 3.46 38.53 3.95 34.03 C 2.33 30.79 0.04 27.13 1.06 23.37 C 2.17 19.06 6.65 17.18 10.26 15.39 C 10.97 12.22 11.76 9.38 14.45 7.30 C 18.14 5.53 22.93 5.23 26.58 7.31 Z" />
</svg>
